lib/logo_updates/nrk-logo-nrk-nyheter-title-below.svg

<svg width="223" height="117" viewBox="0 0 223 117" fill="none" xmlns="http://www.w3.org/2000/svg">
<path d="M0 43V1.00381H13.7802V43H0ZM32.5283 7.68773L40.4532 43H25.3721L15.9092 1.00381H24.3676C26.3072 0.978642 28.1892 1.66237 29.6607 2.92636C31.1347 4.13734 32.1473 5.81844 32.5283 7.68773ZM42.5233 43V1.00381H56.3035V43H42.5233ZM66.7116 16.9743C65.2267 16.9888 63.7656 16.6003 62.4839 15.8504C61.2193 15.1194 60.1688 14.0689 59.438 12.8041C58.6872 11.5222 58.2986 10.0607 58.3134 8.57511C58.2964 7.09861 58.6853 5.64583 59.438 4.3755C60.1766 3.12447 61.2259 2.08533 62.4839 1.35882C63.766 0.609758 65.2269 0.221301 66.7116 0.234844C68.1877 0.218947 69.6399 0.607751 70.9108 1.35882C72.1562 2.09169 73.1943 3.12996 73.9271 4.3755C74.6789 5.64618 75.0677 7.09873 75.0517 8.57511C75.0655 10.0605 74.6769 11.5218 73.9271 12.8041C73.202 14.0633 72.1627 15.113 70.9108 15.8504C69.6398 16.6029 68.1866 16.9918 66.7097 16.9743H66.7116ZM77.1807 43V1.00381H90.9621V43H77.1807ZM108.408 23.9538C108.447 23.9946 108.742 24.4776 109.295 25.403C109.848 26.3283 110.567 27.5114 111.454 28.952C112.341 30.392 113.277 31.9199 114.262 33.536C115.247 35.1521 116.174 36.6803 117.043 38.1202C117.908 39.5602 118.894 41.1867 120 43H104.859C103.912 41.4621 103.055 40.0721 102.286 38.83C101.517 37.5878 100.7 36.2471 99.8334 34.8077C98.9653 33.3698 98.1071 31.9699 97.2587 30.6081C96.4103 29.2464 95.6813 28.0536 95.0714 27.0297C94.459 26.0051 94.0348 25.3149 93.7989 24.9594C93.2139 24.0771 92.8677 23.058 92.7944 22.0019C92.853 20.9883 93.1791 20.0084 93.7397 19.1619C93.9762 18.7676 94.41 18.0675 95.0409 17.062C95.6717 16.0564 96.411 14.8637 97.2587 13.4835C98.1064 12.1034 98.9647 10.6936 99.8334 9.25431C100.702 7.81501 101.519 6.46432 102.286 5.20247C103.056 3.94193 103.914 2.54205 104.859 1.00285H120L108.289 20.1082C107.926 20.6755 107.722 21.3292 107.697 22.0019C107.736 22.7081 107.983 23.3871 108.406 23.9538H108.408Z" fill="white"/>
<path d="M30.0848 92.9856L4.81603 61.0004H0V103.042H5.58898V71.039L30.9182 103.042H35.734V61.0004H30.0857L30.0848 92.9856Z" fill="white"/>
<path d="M65.2835 73.1393L65.2371 95.3147C64.804 95.5664 64.3719 95.8081 63.9488 96.0252C63.2264 96.3957 62.4818 96.7217 61.7192 97.0013C60.997 97.2699 60.2503 97.4682 59.4896 97.5934C58.7132 97.7152 57.928 97.7747 57.142 97.7711C55.9255 97.8197 54.7171 97.5541 53.634 97.0003C52.6952 96.4584 51.9714 95.6124 51.583 94.6032C51.0897 93.3087 50.8569 91.93 50.8981 90.546V72.2491L44.8337 73.1372V91.7293C44.7612 93.974 45.1457 96.2102 45.9643 98.303C46.6211 99.9346 47.8307 101.286 49.3832 102.122C51.1469 102.984 53.0966 103.401 55.0602 103.335C56.6999 103.346 58.3292 103.076 59.8769 102.537C61.4038 101.993 62.845 101.235 64.1569 100.286C64.5186 100.026 64.8762 99.7507 65.233 99.4645L65.2272 102.031C65.2272 104.991 64.5334 107.241 63.1461 108.781C61.7588 110.32 59.4005 111.09 56.071 111.09C55.1587 111.09 54.2271 111.05 53.2765 110.971C52.3273 110.893 51.3839 110.754 50.4522 110.557C49.5208 110.36 48.579 110.113 47.627 109.817C46.6751 109.521 45.7239 109.176 44.7733 108.781L45.4281 114.051C46.2209 114.365 47.053 114.652 47.9243 114.909C48.7957 115.167 49.6875 115.384 50.5998 115.561C51.5115 115.738 52.4629 115.877 53.4538 115.975C54.4447 116.074 55.4559 116.123 56.4871 116.122C58.6379 116.159 60.7789 115.828 62.8181 115.146C64.5438 114.564 66.132 113.637 67.4853 112.421C68.7492 111.264 69.7353 109.837 70.37 108.248C71.0423 106.531 71.3754 104.702 71.351 102.86L71.2906 72.2451L65.2835 73.1393Z" fill="white"/>
<path d="M103.452 73.4344C101.706 72.5506 99.7621 72.123 97.8041 72.1918C96.0589 72.1915 94.3241 72.4609 92.6619 72.9903C90.9727 73.5251 89.3629 74.2822 87.8749 75.2414C87.427 75.5286 86.9939 75.8335 86.5668 76.1582V58.3359L80.5022 59.2242V103.042H86.5668V80.2884C87.0365 80.0318 87.5181 79.787 88.0225 79.564C88.864 79.1941 89.7282 78.8775 90.6099 78.6165C91.4587 78.3653 92.3224 78.1676 93.1961 78.0244C94.0116 77.8892 94.8368 77.8199 95.6635 77.8172C96.6142 77.7971 97.5608 77.9475 98.458 78.2612C99.2146 78.5335 99.8898 78.9918 100.421 79.5935C100.966 80.2467 101.352 81.0169 101.549 81.8437C101.804 82.8897 101.924 83.9639 101.907 85.0402V103.041H107.971V83.7967C108.05 81.5518 107.665 79.3146 106.84 77.224C106.169 75.6185 104.976 74.284 103.452 73.4344Z" fill="white"/>
<path d="M140.019 76.6625C138.877 75.1892 137.371 74.0361 135.648 73.316C133.733 72.5386 131.681 72.1561 129.614 72.1919C127.531 72.1565 125.464 72.5601 123.549 73.3762C121.807 74.1356 120.255 75.2673 119.001 76.6912C117.71 78.1878 116.738 79.9309 116.146 81.8141C115.469 83.9692 115.138 86.2175 115.166 88.4756C115.082 91.3288 115.683 94.1608 116.919 96.7359C118.049 98.9674 119.874 100.775 122.121 101.888C124.758 103.125 127.652 103.723 130.565 103.634C131.967 103.646 133.367 103.557 134.756 103.368C135.916 103.201 137.061 102.934 138.175 102.568C139.279 102.199 140.353 101.744 141.386 101.207L141.801 96.6471C141.048 96.9234 140.285 97.1997 139.512 97.4761C138.739 97.7524 137.937 97.9991 137.104 98.2162C136.265 98.4354 135.41 98.5934 134.548 98.689C133.679 98.7883 132.806 98.838 131.932 98.838C130.371 98.8631 128.813 98.694 127.294 98.3346C126.069 98.0427 124.935 97.4527 123.995 96.6175C123.045 95.7165 122.348 94.5836 121.974 93.3312C121.585 92.0627 121.367 90.7486 121.325 89.4231H142.812C143.105 86.9738 142.994 84.4935 142.485 82.0796C142.067 80.1172 141.225 78.2688 140.019 76.6625ZM125.036 78.0826C126.431 77.2396 128.041 76.8182 129.672 76.8697C131.305 76.7884 132.918 77.2579 134.25 78.2021C135.434 79.1432 136.28 80.4421 136.658 81.903C136.955 82.9833 137.101 84.099 137.092 85.2189H121.456C121.566 84.0381 121.819 82.875 122.211 81.7549C122.718 80.2532 123.712 78.9616 125.036 78.0826Z" fill="white"/>
<path d="M165.912 98.2744L164.901 98.4531C164.576 98.5106 164.249 98.5501 163.92 98.5715C163.602 98.5922 163.304 98.6 163.028 98.6C162.117 98.6253 161.212 98.443 160.382 98.0671C159.668 97.7309 159.077 97.1832 158.688 96.4989C158.271 95.7265 158.066 94.8587 158.093 93.9824V77.5803H166.476L167.13 72.8431H158.093V63.4864L152.029 65.6191V72.8431H147.45L146.796 77.5803H152.029V95.2259C152.002 96.4026 152.183 97.5747 152.564 98.6888C152.87 99.5709 153.344 100.386 153.961 101.088C154.527 101.713 155.214 102.217 155.982 102.568C156.769 102.927 157.597 103.186 158.449 103.337C159.292 103.492 160.148 103.572 161.005 103.574C161.64 103.574 162.264 103.555 162.879 103.516C163.494 103.477 164.059 103.417 164.574 103.337C165.088 103.258 165.575 103.169 166.03 103.072C166.486 102.974 166.872 102.884 167.19 102.804L167.547 97.8905C167.315 97.9795 167.076 98.0488 166.833 98.0977C166.555 98.1559 166.248 98.2162 165.912 98.2744Z" fill="white"/>
<path d="M195.907 76.6625C194.766 75.1894 193.26 74.0363 191.537 73.316C189.622 72.5386 187.57 72.1561 185.502 72.1919C183.42 72.1568 181.353 72.5604 179.438 73.3762C177.696 74.1358 176.143 75.2675 174.889 76.6912C173.598 78.1876 172.627 79.9304 172.036 81.8131C171.358 83.9682 171.027 86.2165 171.055 88.4746C170.972 91.3278 171.573 94.1596 172.808 96.7349C173.939 98.9665 175.764 100.774 178.011 101.886C180.648 103.123 183.541 103.722 186.455 103.633C187.856 103.645 189.257 103.556 190.645 103.367C191.806 103.2 192.95 102.933 194.065 102.567C195.169 102.198 196.243 101.743 197.275 101.206L197.692 96.6461C196.938 96.9225 196.175 97.1988 195.402 97.4751C194.629 97.7514 193.826 97.9981 192.995 98.2153C192.155 98.4344 191.301 98.5924 190.438 98.688C189.57 98.7873 188.696 98.8371 187.822 98.837C186.261 98.8621 184.703 98.693 183.184 98.3337C181.958 98.0413 180.825 97.4513 179.885 96.6165C178.935 95.7151 178.238 94.5823 177.863 93.3302C177.475 92.0618 177.257 90.7476 177.215 89.4221H198.701C198.994 86.9729 198.884 84.4924 198.375 82.0786C197.956 80.1165 197.114 78.2685 195.907 76.6625ZM180.924 78.0826C182.319 77.2394 183.93 76.818 185.562 76.8697C187.195 76.7885 188.808 77.258 190.14 78.2021C191.324 79.1433 192.168 80.4422 192.547 81.903C192.844 82.9831 192.99 84.099 192.981 85.2189H177.345C177.455 84.0382 177.708 82.8751 178.099 81.7549C178.607 80.2534 179.601 78.9619 180.924 78.0826Z" fill="white"/>
<path d="M218.558 72.6351C217.446 72.9318 216.384 73.3908 215.408 73.997C214.393 74.6273 213.455 75.3725 212.612 76.2175C212.472 76.3566 212.336 76.5135 212.196 76.6606V72.2492L206.131 73.1373V103.04H212.196V80.6703C212.647 80.3571 213.114 80.0666 213.594 79.7999C214.189 79.4737 214.805 79.1868 215.437 78.9412C216.05 78.703 216.675 78.4959 217.31 78.3196C217.962 78.1382 218.628 78.0095 219.301 77.9347C220.022 77.8551 220.748 77.8349 221.472 77.8744L222.185 72.3093C220.966 72.2221 219.741 72.3322 218.558 72.6351Z" fill="white"/>
</svg>

<svg xmlns="http://www.w3.org/2000/svg" viewBox="0 0 223 117"><path fill="#fff" d="M0 43V1.004h13.78V43H0ZM32.528 7.688 40.453 43h-15.08L15.908 1.004h8.459a7.965 7.965 0 0 1 5.293 1.922 8.31 8.31 0 0 1 2.867 4.762ZM42.523 43V1.004h13.78V43h-13.78Zm24.189-26.026a8.213 8.213 0 0 1-4.228-1.124 8.336 8.336 0 0 1-3.046-3.046 8.206 8.206 0 0 1-1.125-4.229 8.056 8.056 0 0 1 1.125-4.2 8.437 8.437 0 0 1 3.046-3.016A8.232 8.232 0 0 1 66.712.235a8.083 8.083 0 0 1 4.199 1.124 8.503 8.503 0 0 1 3.016 3.016 8.075 8.075 0 0 1 1.125 4.2 8.226 8.226 0 0 1-1.125 4.23 8.4 8.4 0 0 1-3.016 3.045 8.059 8.059 0 0 1-4.201 1.124h.002ZM77.18 43V1.004h13.781V43H77.181Zm31.227-19.046c.039.04.334.524.887 1.449.553.925 1.272 2.108 2.159 3.549a1143.28 1143.28 0 0 1 5.589 9.168A854.89 854.89 0 0 0 120 43h-15.141c-.947-1.538-1.804-2.928-2.573-4.17a382.214 382.214 0 0 1-2.453-4.022 351.934 351.934 0 0 0-2.574-4.2 213.445 213.445 0 0 1-2.188-3.578 62.753 62.753 0 0 0-1.272-2.07 6.119 6.119 0 0 1-1.005-2.958 5.744 5.744 0 0 1 .946-2.84c.236-.394.67-1.095 1.3-2.1.632-1.006 1.371-2.198 2.219-3.579.847-1.38 1.706-2.79 2.574-4.229.869-1.439 1.686-2.79 2.453-4.052.77-1.26 1.628-2.66 2.573-4.2H120l-11.711 19.106a3.773 3.773 0 0 0-.592 1.894c.039.706.286 1.385.709 1.952h.002ZM30.085 92.986 4.816 61H0v42.042h5.589V71.039l25.33 32.003h4.815V61h-5.648l-.001 31.986ZM65.284 73.14l-.047 22.175a28.33 28.33 0 0 1-1.288.71c-.723.37-1.467.697-2.23.976-.722.269-1.469.467-2.23.592-.776.122-1.561.182-2.347.178a7.085 7.085 0 0 1-3.508-.77 4.73 4.73 0 0 1-2.051-2.398 10.515 10.515 0 0 1-.685-4.057V72.249l-6.064.888V91.73a16.576 16.576 0 0 0 1.13 6.574 7.535 7.535 0 0 0 3.42 3.819 12.011 12.011 0 0 0 5.676 1.213c1.64.011 3.27-.259 4.817-.798a17.086 17.086 0 0 0 4.28-2.251c.362-.26.72-.535 1.076-.822l-.006 2.567c0 2.96-.694 5.21-2.08 6.75-1.388 1.539-3.746 2.309-7.076 2.309-.912 0-1.844-.04-2.794-.119a22.603 22.603 0 0 1-2.825-.414 31.411 31.411 0 0 1-2.825-.74 32.874 32.874 0 0 1-2.854-1.036l.655 5.27a29.249 29.249 0 0 0 5.172 1.51 30.964 30.964 0 0 0 5.887.561c2.15.037 4.292-.294 6.331-.976a13.38 13.38 0 0 0 4.667-2.725 11.383 11.383 0 0 0 2.885-4.173 14.257 14.257 0 0 0 .981-5.388l-.06-30.615-6.007.894ZM103.452 73.434a11.606 11.606 0 0 0-5.648-1.242c-1.745 0-3.48.269-5.142.798a19.948 19.948 0 0 0-6.095 3.168V58.336l-6.065.888v43.818h6.065V80.288c.47-.256.951-.501 1.456-.724.841-.37 1.705-.686 2.587-.947a21.19 21.19 0 0 1 2.586-.593c.816-.135 1.64-.204 2.468-.207.95-.02 1.897.13 2.794.444.757.273 1.432.73 1.963 1.333a5.503 5.503 0 0 1 1.128 2.25c.255 1.046.375 2.12.358 3.196v18.001h6.064V83.797a16.34 16.34 0 0 0-1.131-6.573 7.771 7.771 0 0 0-3.388-3.79ZM140.019 76.662a10.798 10.798 0 0 0-4.371-3.346 15.334 15.334 0 0 0-6.034-1.124 14.829 14.829 0 0 0-6.065 1.184 12.96 12.96 0 0 0-4.548 3.315 14.503 14.503 0 0 0-2.855 5.123 21.344 21.344 0 0 0-.98 6.662 17.873 17.873 0 0 0 1.753 8.26 11.6 11.6 0 0 0 5.202 5.152 18.552 18.552 0 0 0 8.444 1.746 29.223 29.223 0 0 0 4.191-.266 20.16 20.16 0 0 0 3.419-.8 22.263 22.263 0 0 0 3.211-1.361l.415-4.56c-.753.276-1.516.553-2.289.83-.773.275-1.575.522-2.408.74-.839.218-1.694.376-2.556.472-.869.1-1.742.149-2.616.149a18.83 18.83 0 0 1-4.638-.503 7.63 7.63 0 0 1-3.299-1.717 7.48 7.48 0 0 1-2.021-3.287 14.943 14.943 0 0 1-.649-3.908h21.487c.293-2.45.182-4.93-.327-7.343a13.818 13.818 0 0 0-2.466-5.418Zm-14.983 1.42a8.448 8.448 0 0 1 4.636-1.212 7.29 7.29 0 0 1 4.578 1.332 6.956 6.956 0 0 1 2.408 3.701 12.14 12.14 0 0 1 .434 3.316h-15.636c.11-1.18.363-2.344.755-3.464a7.158 7.158 0 0 1 2.825-3.672ZM165.912 98.274l-1.011.18a8.968 8.968 0 0 1-.981.118c-.318.02-.616.028-.892.028a6.01 6.01 0 0 1-2.646-.533 3.82 3.82 0 0 1-1.694-1.568 4.974 4.974 0 0 1-.595-2.517V77.58h8.383l.654-4.737h-9.037v-9.357l-6.064 2.133v7.224h-4.579l-.654 4.737h5.233v17.646a9.992 9.992 0 0 0 .535 3.463c.306.882.78 1.697 1.397 2.399a6.208 6.208 0 0 0 2.021 1.48c.787.359 1.615.618 2.467.769.843.155 1.699.235 2.556.237.635 0 1.259-.019 1.874-.058.615-.039 1.18-.099 1.695-.179a25.806 25.806 0 0 0 1.456-.265c.456-.098.842-.188 1.16-.268l.357-4.913a4.44 4.44 0 0 1-.714.207c-.278.058-.585.118-.921.176ZM195.907 76.662a10.791 10.791 0 0 0-4.37-3.346 15.336 15.336 0 0 0-6.035-1.124 14.837 14.837 0 0 0-6.064 1.184 12.97 12.97 0 0 0-4.549 3.315 14.48 14.48 0 0 0-2.853 5.122 21.316 21.316 0 0 0-.981 6.662 17.898 17.898 0 0 0 1.753 8.26 11.6 11.6 0 0 0 5.203 5.151 18.55 18.55 0 0 0 8.444 1.747 29.209 29.209 0 0 0 4.19-.266 20.171 20.171 0 0 0 3.42-.8 22.204 22.204 0 0 0 3.21-1.361l.417-4.56c-.754.276-1.517.553-2.29.83-.773.275-1.576.522-2.407.74-.84.218-1.694.376-2.557.472a23 23 0 0 1-2.616.149 18.834 18.834 0 0 1-4.638-.503 7.634 7.634 0 0 1-3.299-1.718 7.495 7.495 0 0 1-2.022-3.286 14.983 14.983 0 0 1-.648-3.908h21.486c.293-2.45.183-4.93-.326-7.343a13.818 13.818 0 0 0-2.468-5.416Zm-14.983 1.42a8.449 8.449 0 0 1 4.638-1.212 7.292 7.292 0 0 1 4.578 1.332 6.96 6.96 0 0 1 2.407 3.701c.297 1.08.443 2.196.434 3.316h-15.636c.11-1.18.363-2.344.754-3.464a7.17 7.17 0 0 1 2.825-3.672ZM218.558 72.635a11.676 11.676 0 0 0-3.15 1.362 15.499 15.499 0 0 0-2.796 2.22c-.14.14-.276.296-.416.444v-4.412l-6.065.888v29.903h6.065V80.67c.451-.313.918-.603 1.398-.87a15.555 15.555 0 0 1 1.843-.859 19.778 19.778 0 0 1 1.873-.621c.652-.182 1.318-.31 1.991-.385.721-.08 1.447-.1 2.171-.06l.713-5.566a11.357 11.357 0 0 0-3.627.326Z"/></svg>
